static/img/showcase/kybra_logo.svg

<svg fill="none" height="112" viewBox="0 0 112 112" width="112" xmlns="http://www.w3.org/2000/svg" xmlns:xlink="http://www.w3.org/1999/xlink"><linearGradient id="a" gradientUnits="userSpaceOnUse" x1="16" x2="95.8161" y1="69.2598" y2="69.2598"><stop offset="0" stop-color="#a3b5bd" stop-opacity=".9"/><stop offset=".059645" stop-color="#c3d7e0" stop-opacity=".9"/><stop offset=".179573" stop-color="#c3d7e0" stop-opacity=".9"/><stop offset="1" stop-color="#edf5f9" stop-opacity=".9"/></linearGradient><radialGradient id="b" cx="0" cy="0" gradientTransform="matrix(0 8.75402 -33.7654 0 55.9081 95.7793)" gradientUnits="userSpaceOnUse" r="1"><stop offset="0" stop-color="#3c6370" stop-opacity=".49"/><stop offset="1" stop-color="#193239" stop-opacity=".04"/></radialGradient><linearGradient id="c"><stop offset="0" stop-opacity="0"/><stop offset="1" stop-opacity=".4"/></linearGradient><linearGradient id="d" gradientUnits="userSpaceOnUse" x1="49.4713" x2="34.2805" xlink:href="#c" y1="66.1701" y2="57.6736"/><linearGradient id="e" gradientUnits="userSpaceOnUse" x1="55.9081" x2="55.9081" xlink:href="#c" y1="81.4897" y2="94.7494"/><linearGradient id="f" gradientUnits="userSpaceOnUse" x1="22.1793" x2="89.6368" y1="44.2851" y2="44.2851"><stop offset=".0716428" stop-opacity=".05"/><stop offset=".151369" stop-opacity="0"/><stop offset=".900788" stop-opacity="0"/><stop offset=".987677" stop-opacity=".05"/></linearGradient><linearGradient id="g" gradientUnits="userSpaceOnUse" x1="22.1793" x2="89.3803" y1="53.9527" y2="53.9527"><stop offset=".0797683" stop-color="#212121"/><stop offset=".119244" stop-color="#343434"/><stop offset=".911119" stop-color="#343434"/><stop offset="1" stop-color="#212121"/></linearGradient><linearGradient id="h" gradientUnits="userSpaceOnUse" x1="16" x2="95.8161" y1="21.3701" y2="21.3701"><stop offset=".0782724" stop-color="#212121"/><stop offset=".177817" stop-color="#424242"/><stop offset=".909626" stop-color="#424242"/><stop offset="1" stop-color="#212121"/></linearGradient><path clip-rule="evenodd" d="m16 99.1264v-77.7557c3.0965 6.1305 19.7851 10.8132 39.9081 10.8132 20.1229 0 36.8115-4.6827 39.908-10.8132v77.7557c0 7.1096-17.8674 12.8736-39.908 12.8736-22.0407 0-39.9081-5.764-39.9081-12.8736z" fill="url(#a)" fill-rule="evenodd"/><ellipse cx="55.9081" cy="95.7888" fill="url(#b)" rx="33.7287" ry="8.74453"/><g stroke-linejoin="round"><path d="m66.7219 63.8529v-12.3586l-10.8138-6.1794v12.3587z" fill="#ffd343" stroke="#5c5c5c"/><path d="m66.7219 76.2115v-12.3586l-10.8138-6.1793v12.3586z" fill="#2b5b84" stroke="#5c5c5c"/><path d="m77.5356 70.0322v-12.3586l-10.8138-6.1793v12.3586z" fill="#ffd343" stroke="#5c5c5c"/><path d="m77.5356 82.3908v-12.3586l-10.8138-6.1793v12.3586z" fill="#ffd343" stroke="#5c5c5c"/><path d="m45.0943 63.8529v12.3586l-10.8138 6.1793v-12.3586z" fill="#2b5b84" stroke="#434343"/><path d="m45.0943 51.4943v12.3586l-10.8138 6.1793v-12.3586z" fill="#2b5b84" stroke="#434343"/><path d="m55.908 57.6736v12.3586l-10.8138 6.1793v-12.3586z" fill="#2b5b84" stroke="#434343"/><path d="m55.908 45.3149v12.3587l-10.8138 6.1793v-12.3586z" fill="#ffd343" stroke="#434343"/></g><path d="m34.2805 82.3908 21.6276-12.3586v-24.7173l-21.6276 12.3587z" fill="url(#d)"/><path d="m34.2805 82.3908 21.6276-12.3586v-24.7173l-21.6276 12.3587z" fill="#000" fill-opacity=".2"/><path d="m55.908 70.0322 10.8138 6.1793-10.8138 6.1793-10.8138-6.1793z" fill="#2b5b84" stroke="#303030" stroke-linejoin="round"/><path d="m66.7219 76.2115 10.8138 6.1793-10.8138 6.1793-10.8138-6.1793z" fill="#ffd343" stroke="#303030" stroke-linejoin="round"/><path d="m55.908 82.3908 10.8138 6.1793-10.8138 6.1793-10.8138-6.1793z" fill="#ffd343" stroke="#303030" stroke-linejoin="round"/><path d="m45.0943 76.2115 10.8138 6.1793-10.8138 6.1793-10.8138-6.1793z" fill="#2b5b84" stroke="#303030" stroke-linejoin="round"/><path d="m55.9081 70.0322 21.6276 12.3586-21.6276 12.3586-21.6276-12.3586z" fill="url(#e)"/><path d="m55.9081 70.0322 21.6276 12.3586-21.6276 12.3586-21.6276-12.3586z" fill="#000" fill-opacity=".2"/><path d="m22.1793 32.1839c4.1196 11.7149 65.6552 10.6851 67.4576 0v63.5954c0 3.2184-8.4937 8.7537-33.7288 8.7537-18.4092 0-33.7288-3.862-33.7288-8.7537z" fill="url(#f)"/><path clip-rule="evenodd" d="m89.6368 32.1804c0-.002 0-.004 0-.006 0-.0019 0-.0039 0-.0059v-7.4513h-16.1042c-5.1289-.8165-11.1646-1.2873-17.6245-1.2873s-12.4957.4708-17.6245 1.2873h-16.1043v7.7242h.0154c.5443 4.706 15.43 8.4776 33.7134 8.4776s33.169-3.7716 33.7133-8.4776h.0154z" fill="url(#g)" fill-rule="evenodd"/><path clip-rule="evenodd" d="m55.9081 34.2437c22.0406 0 39.908-5.7637 39.908-12.8736v-8.4965h-9.9258c-7.3138-2.6835-18.0349-4.37705-29.9822-4.37705-11.9474 0-22.6685 1.69355-29.9823 4.37705h-9.9258v8.4965c0 7.1099 17.8674 12.8736 39.9081 12.8736z" fill="url(#h)" fill-rule="evenodd"/><ellipse cx="55.9081" cy="12.8736" fill="#212121" rx="39.9081" ry="12.8736"/><path d="m65.9495 25.3362v36.5857c2.9609-1.2874 5.0778-2.4855 6.1793-3.2184.2258.0581.4393.1135.6433.1664 1.8965.4916 2.979.7722 5.536 1.1209v-36.4603l-.0008-.0008c-3.7185.8149-7.886 1.4326-12.3578 1.8065z" fill="#cca725"/><path d="m42.2621.772417-.0003-.000138c3.644-.427696 7.5357-.6890019 11.5868-.7554333l-.0003.0011771 24.4591 23.5116772c-3.7185.8149-7.886 1.4326-12.3579 1.8065v-.001z" fill="#9d7c0d"/><path d="m72.1302 39.4667c-1.1177.1689-1.9434.54-2.4997 1.1831-.5536.64-.8334 1.5437-.8277 2.725.0192 3.9869.0122 7.9756-.0212 11.9661.4705-.0301.9412-.062 1.411-.1019.0259-1.2861.0463-2.572.0612-3.8575.4428.4208 1.2142.5989 2.2201.4201.0555-.0099.1102-.0206.164-.0322 1.0832-.2223 1.9854-.8056 2.6003-1.5776.6237-.783.9862-1.7921 1.0094-2.9937.0273-1.411-.8072-2.0321-2.2527-2.1719.9052-.7338 1.4016-1.8339 1.4296-3.2581.0177-.8976-.2033-1.5298-.6388-1.9133-.4378-.3856-1.0961-.5269-2.0071-.462-.2039.0146-.4202.0394-.6484.0739zm.1442 1.1477c.173-.0272.3326-.0418.4788-.0431.8632-.0052 1.2823.4429 1.2534 1.4232-.0336 1.1412-.4969 2.004-1.3199 2.5054-.3701.2311-.8295.3861-1.3976.4564-.0007.4418-.0018.8836-.0033 1.3253.5383-.0928.9971-.1479 1.3816-.159 1.2906-.0205 2.0291.3872 2.0163 1.5287-.0175 1.559-.7562 2.623-2.0443 2.8953-.037.0082-.0745.0158-.1127.0227-.9245.1672-1.6953-.2148-2.2552-1.0573.0154-2.0719.0164-4.1428.0031-6.2129-.0105-1.63.6608-2.4745 1.9998-2.6847z" fill="#fff" opacity=".9"/></svg>

<svg width="112" height="112" viewBox="0 0 112 112" fill="none" xmlns="http://www.w3.org/2000/svg">
<path fill-rule="evenodd" clip-rule="evenodd" d="M16 99.1264V21.3707C19.0965 27.5012 35.7851 32.1839 55.9081 32.1839C76.031 32.1839 92.7196 27.5012 95.8161 21.3707V99.1264C95.8161 106.236 77.9487 112 55.9081 112C33.8674 112 16 106.236 16 99.1264Z" fill="url(#paint0_linear_701_2)"/>
<ellipse cx="55.9081" cy="95.7888" rx="33.7287" ry="8.74453" fill="url(#paint1_radial_701_2)"/>
<path d="M66.7219 63.8529V51.4943L55.9081 45.3149L55.9081 57.6736L66.7219 63.8529Z" fill="#FFD343" stroke="#5C5C5C" stroke-linejoin="round"/>
<path d="M66.7219 76.2115V63.8529L55.9081 57.6736L55.9081 70.0322L66.7219 76.2115Z" fill="#2B5B84" stroke="#5C5C5C" stroke-linejoin="round"/>
<path d="M77.5356 70.0322V57.6736L66.7218 51.4943L66.7218 63.8529L77.5356 70.0322Z" fill="#FFD343" stroke="#5C5C5C" stroke-linejoin="round"/>
<path d="M77.5356 82.3908V70.0322L66.7218 63.8529L66.7218 76.2115L77.5356 82.3908Z" fill="#FFD343" stroke="#5C5C5C" stroke-linejoin="round"/>
<path d="M45.0943 63.8529L45.0943 76.2115L34.2805 82.3908L34.2805 70.0322L45.0943 63.8529Z" fill="#2B5B84" stroke="#434343" stroke-linejoin="round"/>
<path d="M45.0943 51.4943L45.0943 63.8529L34.2805 70.0322L34.2805 57.6736L45.0943 51.4943Z" fill="#2B5B84" stroke="#434343" stroke-linejoin="round"/>
<path d="M55.908 57.6736L55.908 70.0322L45.0942 76.2115L45.0942 63.8529L55.908 57.6736Z" fill="#2B5B84" stroke="#434343" stroke-linejoin="round"/>
<path d="M55.908 45.3149L55.908 57.6736L45.0942 63.8529L45.0942 51.4943L55.908 45.3149Z" fill="#FFD343" stroke="#434343" stroke-linejoin="round"/>
<path d="M34.2805 82.3908L55.9081 70.0322L55.9081 45.3149L34.2805 57.6736L34.2805 82.3908Z" fill="url(#paint2_linear_701_2)"/>
<path d="M34.2805 82.3908L55.9081 70.0322L55.9081 45.3149L34.2805 57.6736L34.2805 82.3908Z" fill="black" fill-opacity="0.2"/>
<path d="M55.908 70.0322L66.7218 76.2115L55.908 82.3908L45.0942 76.2115L55.908 70.0322Z" fill="#2B5B84" stroke="#303030" stroke-linejoin="round"/>
<path d="M66.7219 76.2115L77.5357 82.3908L66.7219 88.5701L55.9081 82.3908L66.7219 76.2115Z" fill="#FFD343" stroke="#303030" stroke-linejoin="round"/>
<path d="M55.908 82.3908L66.7218 88.5701L55.908 94.7494L45.0942 88.5701L55.908 82.3908Z" fill="#FFD343" stroke="#303030" stroke-linejoin="round"/>
<path d="M45.0943 76.2115L55.9081 82.3908L45.0943 88.5701L34.2805 82.3908L45.0943 76.2115Z" fill="#2B5B84" stroke="#303030" stroke-linejoin="round"/>
<path d="M55.9081 70.0322L77.5357 82.3908L55.9081 94.7494L34.2805 82.3908L55.9081 70.0322Z" fill="url(#paint3_linear_701_2)"/>
<path d="M55.9081 70.0322L77.5357 82.3908L55.9081 94.7494L34.2805 82.3908L55.9081 70.0322Z" fill="black" fill-opacity="0.2"/>
<path d="M22.1793 32.1839C26.2989 43.8988 87.8345 42.869 89.6369 32.1839V95.7793C89.6369 98.9977 81.1432 104.533 55.9081 104.533C37.4989 104.533 22.1793 100.671 22.1793 95.7793L22.1793 32.1839Z" fill="url(#paint4_linear_701_2)"/>
<path fill-rule="evenodd" clip-rule="evenodd" d="M89.6368 32.1804C89.6368 32.1784 89.6368 32.1764 89.6368 32.1744C89.6368 32.1725 89.6368 32.1705 89.6368 32.1685V24.7172H73.5326C68.4037 23.9007 62.368 23.4299 55.9081 23.4299C49.4482 23.4299 43.4124 23.9007 38.2836 24.7172H22.1793V32.4414H22.1947C22.739 37.1474 37.6247 40.919 55.9081 40.919C74.1915 40.919 89.0771 37.1474 89.6214 32.4414H89.6368V32.1804Z" fill="url(#paint5_linear_701_2)"/>
<path fill-rule="evenodd" clip-rule="evenodd" d="M55.9081 34.2437C77.9487 34.2437 95.8161 28.48 95.8161 21.3701V12.8736H85.8903C78.5765 10.1901 67.8554 8.49655 55.9081 8.49655C43.9607 8.49655 33.2396 10.1901 25.9258 12.8736H16V21.3701C16 28.48 33.8674 34.2437 55.9081 34.2437Z" fill="url(#paint6_linear_701_2)"/>
<ellipse cx="55.9081" cy="12.8736" rx="39.9081" ry="12.8736" fill="#212121"/>
<path d="M65.9495 25.3362L65.9495 61.9219C68.9104 60.6345 71.0273 59.4364 72.1288 58.7035C72.3546 58.7616 72.5681 58.817 72.7721 58.8699C74.6686 59.3615 75.7511 59.6421 78.3081 59.9908V23.5305L78.3073 23.5297C74.5888 24.3446 70.4213 24.9623 65.9495 25.3362Z" fill="#CCA725"/>
<path d="M42.2621 0.772417L42.2618 0.772279C45.9058 0.344583 49.7975 0.0832771 53.8486 0.0168457L53.8483 0.0180228L78.3074 23.5297C78.3074 23.5297 78.3074 23.5296 78.3074 23.5297C74.5889 24.3446 70.4214 24.9623 65.9495 25.3362V25.3352L42.2621 0.772417Z" fill="#9D7C0D"/>
<path opacity="0.9" d="M72.1302 39.4667C71.0125 39.6356 70.1868 40.0067 69.6305 40.6498C69.0769 41.2898 68.7971 42.1935 68.8028 43.3748C68.822 47.3617 68.815 51.3504 68.7816 55.3409C69.2521 55.3108 69.7228 55.2789 70.1926 55.239C70.2185 53.9529 70.2389 52.667 70.2538 51.3815C70.6966 51.8023 71.468 51.9804 72.4739 51.8016C72.5294 51.7917 72.5841 51.781 72.6379 51.7694V51.7694C73.7211 51.5471 74.6233 50.9638 75.2382 50.1918C75.8619 49.4088 76.2244 48.3997 76.2476 47.1981C76.2749 45.7871 75.4404 45.166 73.9949 45.0262C74.9001 44.2924 75.3965 43.1923 75.4245 41.7681C75.4422 40.8705 75.2212 40.2383 74.7857 39.8548C74.3479 39.4692 73.6896 39.3279 72.7786 39.3928C72.5747 39.4074 72.3584 39.4322 72.1302 39.4667V39.4667ZM72.2744 40.6144C72.4474 40.5872 72.607 40.5726 72.7532 40.5713C73.6164 40.5661 74.0355 41.0142 74.0066 41.9945C73.973 43.1357 73.5097 43.9985 72.6867 44.4999C72.3166 44.731 71.8572 44.886 71.2891 44.9563C71.2884 45.3981 71.2873 45.8399 71.2858 46.2816C71.8241 46.1888 72.2829 46.1337 72.6674 46.1226C73.958 46.1021 74.6965 46.5098 74.6837 47.6513C74.6662 49.2103 73.9275 50.2743 72.6394 50.5466C72.6024 50.5548 72.5649 50.5624 72.5267 50.5693C71.6022 50.7365 70.8314 50.3545 70.2715 49.512C70.2869 47.4401 70.2879 45.3692 70.2746 43.2991C70.2641 41.6691 70.9354 40.8246 72.2744 40.6144V40.6144Z" fill="white"/>
<defs>
<linearGradient id="paint0_linear_701_2" x1="16" y1="69.2598" x2="95.8161" y2="69.2598" gradientUnits="userSpaceOnUse">
<stop stop-color="#A3B5BD" stop-opacity="0.9"/>
<stop offset="0.059645" stop-color="#C3D7E0" stop-opacity="0.9"/>
<stop offset="0.179573" stop-color="#C3D7E0" stop-opacity="0.9"/>
<stop offset="1" stop-color="#EDF5F9" stop-opacity="0.9"/>
</linearGradient>
<radialGradient id="paint1_radial_701_2" cx="0" cy="0" r="1" gradientUnits="userSpaceOnUse" gradientTransform="translate(55.9081 95.7793) rotate(90) scale(8.75402 33.7654)">
<stop stop-color="#3C6370" stop-opacity="0.49"/>
<stop offset="1" stop-color="#193239" stop-opacity="0.04"/>
</radialGradient>
<linearGradient id="paint2_linear_701_2" x1="49.4713" y1="66.1701" x2="34.2805" y2="57.6736" gradientUnits="userSpaceOnUse">
<stop stop-opacity="0"/>
<stop offset="1" stop-opacity="0.4"/>
</linearGradient>
<linearGradient id="paint3_linear_701_2" x1="55.9081" y1="81.4897" x2="55.9081" y2="94.7494" gradientUnits="userSpaceOnUse">
<stop stop-opacity="0"/>
<stop offset="1" stop-opacity="0.4"/>
</linearGradient>
<linearGradient id="paint4_linear_701_2" x1="22.1793" y1="44.2851" x2="89.6368" y2="44.2851" gradientUnits="userSpaceOnUse">
<stop offset="0.0716428" stop-opacity="0.05"/>
<stop offset="0.151369" stop-opacity="0"/>
<stop offset="0.900788" stop-opacity="0"/>
<stop offset="0.987677" stop-opacity="0.05"/>
</linearGradient>
<linearGradient id="paint5_linear_701_2" x1="22.1793" y1="53.9527" x2="89.3803" y2="53.9527" gradientUnits="userSpaceOnUse">
<stop offset="0.0797683" stop-color="#212121"/>
<stop offset="0.119244" stop-color="#343434"/>
<stop offset="0.911119" stop-color="#343434"/>
<stop offset="1" stop-color="#212121"/>
</linearGradient>
<linearGradient id="paint6_linear_701_2" x1="16" y1="21.3701" x2="95.8161" y2="21.3701" gradientUnits="userSpaceOnUse">
<stop offset="0.0782724" stop-color="#212121"/>
<stop offset="0.177817" stop-color="#424242"/>
<stop offset="0.909626" stop-color="#424242"/>
<stop offset="1" stop-color="#212121"/>
</linearGradient>
</defs>
</svg>
